src/images/tokens/baby.svg

<svg viewBox="0 0 90 90" width="24px" color="text" xmlns="http://www.w3.org/2000/svg" class="sc-bdnxRM izaTCC">
    <circle cx="38.5" cy="38.5" r="38.5" fill="#FFF1D9"></circle>
    <path fill-rule="evenodd" clip-rule="evenodd"
          d="M44.4619 56.4743C40.6749 63.0337 32.2874 65.2811 25.728 61.494C19.1686 57.707 16.9212 49.3195 20.7082 42.7601C24.4953 36.2007 32.8828 33.9533 39.4422 37.7403C46.0016 41.5274 48.249 49.9149 44.4619 56.4743ZM27.0994 59.1187C32.3469 62.1483 39.0569 60.3504 42.0866 55.1029C45.1162 49.8553 43.3183 43.1454 38.0708 40.1157C32.8232 37.086 26.1133 38.884 23.0836 44.1315C20.054 49.379 21.8519 56.089 27.0994 59.1187Z"
          fill="#482402"></path>
    <path fill-rule="evenodd" clip-rule="evenodd"
          d="M39.9488 53.8686C37.6008 57.9355 32.4006 59.3289 28.3337 56.9809C24.2669 54.6329 22.8735 49.4327 25.2215 45.3658C27.5695 41.299 32.7697 39.9056 36.8365 42.2536C40.9034 44.6016 42.2968 49.8018 39.9488 53.8686ZM29.7052 54.6055C32.4601 56.1961 35.9828 55.2522 37.5734 52.4972C39.164 49.7423 38.2201 46.2195 35.4651 44.629C32.7102 43.0384 29.1874 43.9823 27.5969 46.7373C26.0063 49.4922 26.9502 53.0149 29.7052 54.6055Z"
          fill="#482402"></path>
    <path fill-rule="evenodd" clip-rule="evenodd"
          d="M36.3386 43.1165C32.7482 41.0435 28.1572 42.2737 26.0842 45.8641C24.0113 49.4545 25.2415 54.0455 28.8319 56.1185C32.4223 58.1914 37.0133 56.9612 39.0863 53.3708C41.1592 49.7804 39.929 45.1894 36.3386 43.1165ZM23.0838 44.1318C26.1134 38.8843 32.8234 37.0863 38.0709 40.116C43.3185 43.1456 45.1164 49.8556 42.0867 55.1031C39.0571 60.3507 32.3471 62.1486 27.0996 59.1189C21.8521 56.0893 20.0541 49.3793 23.0838 44.1318Z"
          fill="#F6E6D2"></path>
    <path d="M55.1857 26.929C54.2954 28.4711 52.9813 29.616 51.4755 30.3015C50.3092 30.8324 49.59 32.79 50.3614 33.8133C53.3074 37.7213 54.6549 42.6364 54.119 47.4959C54.0343 48.2637 54.5512 48.9779 55.2733 49.2521C55.6141 49.3815 55.949 49.5399 56.2749 49.728C59.5546 51.6215 60.6783 55.8153 58.7848 59.095C56.8913 62.3747 52.6975 63.4984 49.4178 61.6048L18.4193 43.7078C15.1396 41.8143 14.0159 37.6205 15.9094 34.3408C17.8029 31.0611 21.9967 29.9374 25.2764 31.831C25.6023 32.0191 25.9069 32.23 26.1893 32.4604C26.7879 32.9487 27.6648 33.0392 28.2874 32.582C32.2279 29.6882 37.1582 28.3975 42.0156 28.9948C43.2876 29.1513 44.6233 27.5497 44.4999 26.2742C44.3407 24.6273 44.6752 22.9169 45.5655 21.3748C47.8377 17.4391 51.4988 18.4661 55.4344 20.7383C55.4344 20.7383 57.458 22.9934 55.1857 26.929Z"
          fill="#E89B37"></path>
    <path d="M55.1857 26.929C54.2954 28.4711 52.9813 29.616 51.4755 30.3015C50.3092 30.8324 49.59 32.79 50.3614 33.8133C53.3074 37.7213 54.6549 42.6364 54.119 47.4959C54.0343 48.2637 54.5512 48.9779 55.2733 49.2521C55.6141 49.3815 55.949 49.5399 56.2749 49.728C59.5546 51.6215 60.6783 55.8153 58.7848 59.095C56.8913 62.3747 52.6975 63.4984 49.4178 61.6048L18.4193 43.7078C15.1396 41.8143 14.0159 37.6205 15.9094 34.3408C17.8029 31.0611 21.9967 29.9374 25.2764 31.831C25.6023 32.0191 25.9069 32.23 26.1893 32.4604C26.7879 32.9487 27.6648 33.0392 28.2874 32.582C32.2279 29.6882 37.1582 28.3975 42.0156 28.9948C43.2876 29.1513 44.6233 27.5497 44.4999 26.2742C44.3407 24.6273 44.6752 22.9169 45.5655 21.3748C47.8377 17.4391 51.4988 18.4661 55.4344 20.7383C55.4344 20.7383 57.458 22.9934 55.1857 26.929Z"
          fill="url(#paint0_linear)"></path>
    <path d="M52.1 46.3302C52.6358 41.4707 51.2884 36.5556 48.3424 32.6476L47.5923 33.9468C48.726 39.352 47.8051 39.4538 47.3492 43.5874C47.2646 44.3552 47.7815 45.0694 48.5036 45.3436C48.8443 45.473 49.1793 45.6314 49.5051 45.8195C52.7848 47.713 53.9086 51.9068 52.015 55.1865C50.1215 58.4662 45.9277 59.5899 42.648 57.6964L47.3988 60.4392C50.6785 62.3327 54.8722 61.209 56.7658 57.9293C58.6593 54.6496 57.5356 50.4559 54.2559 48.5623C53.93 48.3742 53.5951 48.2158 53.2543 48.0864C52.5322 47.8122 52.0153 47.098 52.1 46.3302Z"
          fill="#E28432"></path>
    <path fill-rule="evenodd" clip-rule="evenodd"
          d="M50.3391 27.805C51.342 27.3485 52.215 26.5886 52.8103 25.5575C54.3252 22.9337 53.4262 19.5788 50.8024 18.0639C48.1787 16.5491 44.8237 17.4481 43.3089 20.0718C42.7136 21.1029 42.492 22.2389 42.5981 23.3358C42.7539 24.9476 42.0201 26.3904 41.2042 27.3135C40.4058 28.2169 38.9306 29.2742 37.0489 29.0428C32.8863 28.5309 28.6563 29.6381 25.2789 32.1184C23.4831 33.4372 21.2221 33.0523 19.8236 31.9114C19.6546 31.7735 19.4711 31.6464 19.273 31.532C17.3052 30.3958 14.7889 31.0701 13.6528 33.0379C12.5167 35.0057 13.1909 37.522 15.1587 38.6581L50.7892 59.2294C52.7571 60.3655 55.2733 59.6913 56.4094 57.7234C57.5455 55.7556 56.8713 53.2394 54.9035 52.1033C54.7054 51.9889 54.5035 51.8936 54.2996 51.8161C52.6123 51.1754 51.1484 49.4098 51.3927 47.1951C51.852 43.0301 50.6958 38.8133 48.1712 35.4643C47.03 33.9504 47.208 32.1441 47.5912 31.001C47.9827 29.8328 48.8652 28.476 50.3391 27.805ZM51.4755 30.3014C52.9813 29.6159 54.2954 28.471 55.1857 26.9289C57.4579 22.9933 56.1095 17.9608 52.1739 15.6886C48.2382 13.4163 43.2057 14.7648 40.9335 18.7004C40.0432 20.2425 39.7087 21.9529 39.868 23.5998C39.9913 24.8753 38.6556 26.4769 37.3837 26.3205C32.5263 25.7231 27.5959 27.0138 23.6554 29.9076C23.0329 30.3648 22.1559 30.2743 21.5574 29.786C21.2749 29.5556 20.9703 29.3448 20.6444 29.1566C17.3647 27.2631 13.171 28.3868 11.2774 31.6665C9.38388 34.9462 10.5076 39.1399 13.7873 41.0334L49.4178 61.6047C52.6975 63.4983 56.8913 62.3746 58.7848 59.0949C60.6783 55.8152 59.5546 51.6214 56.2749 49.7279C55.949 49.5397 55.6141 49.3814 55.2733 49.252C54.5512 48.9777 54.0343 48.2635 54.119 47.4958C54.6549 42.6363 53.3074 37.7212 50.3614 33.8132C49.59 32.7899 50.3091 30.8323 51.4755 30.3014Z"
          fill="#482402"></path>
    <path fill-rule="evenodd" clip-rule="evenodd"
          d="M38.7778 34.1219C38.5946 34.8569 37.8503 35.3041 37.1154 35.1209C36.2965 34.9168 34.7937 34.767 33.1425 35.0615C31.507 35.3532 29.8027 36.0652 28.4499 37.5076C27.9317 38.0601 27.0639 38.0879 26.5114 37.5698C25.959 37.0516 25.9311 36.1837 26.4493 35.6313C28.3022 33.6557 30.5983 32.7292 32.661 32.3613C34.7079 31.9962 36.601 32.1659 37.7789 32.4595C38.5138 32.6427 38.9611 33.387 38.7778 34.1219Z"
          fill="#482402"></path>
    <defs>
        <linearGradient id="paint0_linear" x1="18.1345" y1="30.4829" x2="59.4143" y2="54.4827"
                        gradientUnits="userSpaceOnUse">
            <stop stop-color="#EFC443"></stop>
            <stop offset="1" stop-color="#E69536"></stop>
        </linearGradient>
    </defs>
</svg>

<svg xmlns="http://www.w3.org/2000/svg" viewBox="0 0 90 90"><circle cx="38.5" cy="38.5" r="38.5" fill="#FFF1D9"/><path fill="#482402" fill-rule="evenodd" d="M44.462 56.474c-3.787 6.56-12.175 8.807-18.734 5.02-6.56-3.787-8.807-12.175-5.02-18.734 3.787-6.56 12.175-8.807 18.734-5.02 6.56 3.787 8.807 12.175 5.02 18.734ZM27.099 59.12c5.248 3.03 11.958 1.231 14.988-4.016 3.03-5.248 1.231-11.958-4.016-14.987-5.248-3.03-11.958-1.232-14.987 4.016-3.03 5.247-1.232 11.957 4.015 14.987Z" clip-rule="evenodd"/><path fill="#482402" fill-rule="evenodd" d="M39.949 53.869a8.503 8.503 0 1 1-14.728-8.503 8.503 8.503 0 0 1 14.728 8.503Zm-10.244.736a5.76 5.76 0 1 0 5.76-9.976 5.76 5.76 0 0 0-5.76 9.977Z" clip-rule="evenodd"/><path fill="#F6E6D2" fill-rule="evenodd" d="M36.339 43.117a7.507 7.507 0 1 0-7.507 13.001 7.507 7.507 0 0 0 7.507-13.002Zm-13.255 1.015c3.03-5.248 9.74-7.046 14.987-4.016 5.248 3.03 7.045 9.74 4.016 14.987-3.03 5.248-9.74 7.046-14.987 4.016-5.248-3.03-7.046-9.74-4.016-14.987Z" clip-rule="evenodd"/><path fill="#E89B37" d="M55.186 26.929a8.191 8.191 0 0 1-3.71 3.373c-1.167.53-1.886 2.488-1.115 3.511a19.27 19.27 0 0 1 3.758 13.683c-.085.768.432 1.482 1.154 1.756a6.857 6.857 0 1 1-5.855 12.353L18.419 43.708a6.857 6.857 0 1 1 7.77-11.248c.599.489 1.476.58 2.098.122a19.27 19.27 0 0 1 13.729-3.587c1.272.156 2.607-1.445 2.484-2.72a8.192 8.192 0 0 1 1.066-4.9c2.272-3.936 5.933-2.909 9.868-.637 0 0 2.024 2.255-.248 6.191Z"/><path fill="url(#a)" d="M55.186 26.929a8.191 8.191 0 0 1-3.71 3.373c-1.167.53-1.886 2.488-1.115 3.511a19.27 19.27 0 0 1 3.758 13.683c-.085.768.432 1.482 1.154 1.756a6.857 6.857 0 1 1-5.855 12.353L18.419 43.708a6.857 6.857 0 1 1 7.77-11.248c.599.489 1.476.58 2.098.122a19.27 19.27 0 0 1 13.729-3.587c1.272.156 2.607-1.445 2.484-2.72a8.192 8.192 0 0 1 1.066-4.9c2.272-3.936 5.933-2.909 9.868-.637 0 0 2.024 2.255-.248 6.191Z"/><path fill="#E28432" d="M52.1 46.33a19.27 19.27 0 0 0-3.758-13.682l-.75 1.299c1.134 5.405.213 5.507-.243 9.64-.084.768.433 1.482 1.155 1.757a6.857 6.857 0 1 1-5.856 12.353l4.75 2.742a6.857 6.857 0 1 0 5.856-12.353c-.722-.274-1.239-.988-1.154-1.756Z"/><path fill="#482402" fill-rule="evenodd" d="M50.34 27.805a5.486 5.486 0 1 0-7.741-4.47c.155 1.613-.579 3.055-1.395 3.979-.798.903-2.273 1.96-4.155 1.729a16.527 16.527 0 0 0-11.77 3.075c-1.796 1.32-4.057.934-5.455-.207a4.114 4.114 0 1 0-4.665 6.747l35.63 20.571a4.114 4.114 0 1 0 3.51-7.413c-1.687-.64-3.15-2.406-2.906-4.62a16.527 16.527 0 0 0-3.222-11.732c-1.141-1.514-.963-3.32-.58-4.463.392-1.168 1.274-2.525 2.748-3.196Zm1.135 2.496A8.228 8.228 0 1 0 39.868 23.6c.123 1.276-1.212 2.878-2.484 2.722a19.27 19.27 0 0 0-13.729 3.587c-.622.457-1.5.366-2.098-.122a6.857 6.857 0 1 0-7.77 11.247l35.63 20.572a6.857 6.857 0 1 0 5.856-12.353c-.722-.274-1.239-.989-1.154-1.756a19.27 19.27 0 0 0-3.758-13.683c-.771-1.023-.052-2.98 1.114-3.512Z" clip-rule="evenodd"/><path fill="#482402" fill-rule="evenodd" d="M38.778 34.122a1.371 1.371 0 0 1-1.663.999c-.819-.204-2.321-.354-3.973-.06-1.635.292-3.34 1.004-4.692 2.447a1.371 1.371 0 1 1-2-1.877c1.852-1.975 4.148-2.902 6.211-3.27 2.047-.365 3.94-.195 5.118.099.735.183 1.182.927.999 1.662Z" clip-rule="evenodd"/><defs><linearGradient id="a" x1="18.134" x2="59.414" y1="30.483" y2="54.483" gradientUnits="userSpaceOnUse"><stop stop-color="#EFC443"/><stop offset="1" stop-color="#E69536"/></linearGradient></defs></svg>
